!!!COM: Louise Reichardt
!!!CNT: Deutsch
!!!TXO: Deutsch
!!!OTL: Durch die bunten Rosenhecken
!!!LYR: Tieck
!!!OPR: 
!!!OPS: No opus information available
!!!ONM: No. 25
!!!ENC: Ben Fuhrman
!!!YOR: Louise Reichardt: Songs
!!!YOR: New York, Da Capo Press, 1981
!!!ODT: 1800 - 1826
!!NB: Only vocal melody encoded.
!!NB: First instance of melodic material only encoded.
!!created: 2/18/10 4:15PM
!!proofed and posted: 2/18/10 4:15PM
**kern	**silbe
*clef G2	*
*k[b-e-a-d-]	*
*M4/4	*
*MM[Unruhig und klagend]	*
{8f	{Durch
8a-	die
=1	=1
4.cc	bun-
8cc	-ten
4.dd-	Ro-
8b-	-sen-
=2	=2
4cc	-he-
4cc	-cken
4r	.
8cc	flat-
8a	-tern
=3	=3
4.g	Schmet-
8g	-ter-
4.a-	-lin-
8g	-ge
=4	=4
2g}	hin;}
4r	.
{8g	{mun-
8a-	-tre
=5	=5
4.b-	Ler-
8g	-chen-
4.dd-	-to2-
8b-	-ne
=6	=6
4ff	we-
4een	-cken
4.gg	schon-
8een	die
=7	=7
4ff	Ta-
4d	-ges-
4cc	-ko2-
4en	-ni-
=8	=8
2f}	-gin.}
2r	.
==	==
*-	*-
